packages/katcn/src/icons/svg/customization-solid.svg

<svg width="24" height="24" viewBox="0 0 24 24" fill="none" xmlns="http://www.w3.org/2000/svg">
<path d="M20.1176 18.1429H18C17.6471 16.8571 16.5 16 15.0882 16C13.4118 16 12 17.3714 12 19C12 20.6286 13.4118 22 15.0882 22C16.5 22 17.6471 21.1429 18 19.8571H20.1176C20.6471 19.8571 21 19.4286 21 19C21 18.4857 20.6471 18.1429 20.1176 18.1429Z" fill="black"/>
<path d="M10.1489 18H3.85106C3.34043 18 3 18.5 3 19C3 19.6 3.42553 20 3.85106 20H10.1489C10.6596 20 11 19.5 11 19C11 18.4 10.5745 18 10.1489 18Z" fill="black"/>
<path d="M3.85106 6H10.1489C10.6596 6 11 5.5 11 5C11 4.5 10.5745 4 10.1489 4H3.85106C3.34043 4 3 4.5 3 5C3 5.5 3.42553 6 3.85106 6Z" fill="black"/>
<path d="M15.0882 8C16.5 8 17.6471 7.14286 18 5.85714H20.1176C20.6471 5.85714 21 5.42857 21 5C21 4.57143 20.5588 4.14286 20.1176 4.14286H18C17.6471 2.85714 16.5 2 15.0882 2C13.4118 2 12 3.37143 12 5C12 6.62857 13.4118 8 15.0882 8Z" fill="black"/>
<path d="M3.88235 12.8571H6C6.35294 14.0571 7.5 15 8.91176 15C10.5882 15 12 13.6286 12 12C12 10.3714 10.5882 9 8.91176 9C7.5 9 6.35294 9.85714 6 11.1429H3.88235C3.35294 11.1429 3 11.5714 3 12C3 12.4286 3.44118 12.8571 3.88235 12.8571Z" fill="black"/>
<path d="M20.1398 11H13.8602C13.3441 11 13 11.5 13 12C13 12.5 13.4301 13 13.8602 13H20.1398C20.6559 13 21 12.5 21 12C21 11.5 20.6559 11 20.1398 11Z" fill="black"/>
</svg>

<svg xmlns="http://www.w3.org/2000/svg" fill="none" viewBox="0 0 24 24"><path fill="#000" d="M20.118 18.143H18C17.647 16.857 16.5 16 15.088 16 13.412 16 12 17.371 12 19s1.412 3 3.088 3c1.412 0 2.56-.857 2.912-2.143h2.118A.87.87 0 0 0 21 19c0-.514-.353-.857-.882-.857M10.149 18H3.85c-.51 0-.851.5-.851 1 0 .6.426 1 .851 1h6.298c.51 0 .851-.5.851-1 0-.6-.425-1-.851-1M3.851 6h6.298c.51 0 .851-.5.851-1s-.425-1-.851-1H3.85C3.341 4 3 4.5 3 5s.426 1 .851 1m11.237 2C16.5 8 17.648 7.143 18 5.857h2.118c.53 0 .882-.428.882-.857s-.441-.857-.882-.857H18C17.647 2.857 16.5 2 15.088 2 13.412 2 12 3.371 12 5s1.412 3 3.088 3M3.882 12.857H6C6.353 14.057 7.5 15 8.912 15 10.588 15 12 13.629 12 12s-1.412-3-3.088-3C7.5 9 6.352 9.857 6 11.143H3.882A.87.87 0 0 0 3 12c0 .429.441.857.882.857M20.14 11h-6.28c-.516 0-.86.5-.86 1s.43 1 .86 1h6.28c.516 0 .86-.5.86-1s-.344-1-.86-1"/></svg>
